!!!ONB: MCCC : IJH0432_01 : Extracted Monophonic Melody
!!!COM: Haydn, Joseph
!!!OPR: String Quartet in D major
!!!OMV: 1
!!!SCT: Hob.III:70 ; Op.71 No.2
!!!ODT: 1793///
**kern
*thru
*k[f#c#]
*D:
*clefF
*M4/4
8dd
8d
8e
8f#
2g
=1
8ee
8e
8f#
8g
4.a
8dd
=2
8cc#
4b
4a
4g
8f#[
=3
16f#]
16e
16d#
16e
16f#
16g
16a
16b
4d
8e
8r
=4
2r
8r
8dd
8d
8ff#
=5
4ff#
8ee
8dd
4cc#
8dd
8aa
=6
4aa
8gg
8ff#
4aa
8gg
8ff#
=7
8ee
8dd
8gg
8ff#
8ee
8aa
8a
8r
=8
2r
8r
8dd
8d
8ff#
=9
4ff#
8ee
8dd#
4dd#
8ee
8bb
=10
8ddd
8ccc
8bb
8aa
16aa
16gg
16bb
16aa
16gg
16ff#
16aa
16gg
=11
16gg
16ff#
16ff#
16ee
16ee
16dd
16dd
16cc#
8dd
16c#
16d
16c#
16d
16f#
16d
=12
8c#
16f#
16g
16f#
16g
16b
16g
8f#
16cc#
16dd
16cc#
16dd
16ff#
16dd
=13
8cc#
16ff#
16gg
16ff#
16gg
16bb
16gg
8ff#
16ccc#
16ddd
16ccc#
16ddd
16bb
16gg
=14
16ff#
16dd
2..r
=15
8r
16ccc#
16ddd
16ccc#
16ddd
16bb
16gg
16ff#
16dd
16gg
16dd
16aa
16dd
16bb
16dd
=16
16aa
16dd
16bb
16dd
16aa
16dd
16bb
16dd
8aa
8dd
8gg
8ff#
=17
8ee
16gg#
16aa
16gg#
16aa
16bb
16aa
16gg
16ee
16gg
16ee
16ff#
16dd
16ff#
16dd
=18
8ee
4.r
8ccc#
8r
8ddd
8r
=19
8ccc#
8ddd
8ccc#
8ddd
4ccc#
8r
8aa
=20
2..a
8ddd
=21
8dd
8bb
8b
8gg#
8g#
8ee#
8e#
8b
=22
8a
8ccc#
8cc#
8aa
8a
8ff#
8f#
8ee
=23
16dd#
16ee
16ff#
16gg#
16aa
16gg#
16ff#
16ee
16dd#
16ee
16ff#
16gg#
16aa
16gg#
16ff#
16ee
=24
16dd#
16ee
16ff#
16gg#
16aa
16gg#
16ff#
16ee
16dd#
16ee
16ff#
16ee
16dd#
16cc#
16b
16a
=25
16g#
16gg#
16bb
16aa
16gg#
16ff#
16ee
16dd#
16ee
16gg#
16bb
16aa
16gg#
16ff#
16ee
16dd#
=26
16ee
16bb
16ddd
16ccc#
16bb
16aa
16gg#
16ff#
16ee
16gg#
16bb
16aa
16gg#
16ff#
16ee
16dd
=27
8cc#
8ff#
4.ee
8ff#
4ee[
=28
16ee]
16ff#
16ee
16ff#
4ee[
16ee]
16ff#
16ee
16ff#
4ee[
=29
16ee]
16ff#
16ee
16ff#
16ee
16ff#
16ee
16ff#
16ee
16ff#
16gg#
16aa
16bb
16ccc#
16ddd
16bb
=30
16ccc#
16ddd
16eee
16ccc#
16aa
16bb
16ccc#
16aa
16ff#
16gg#
16aa
16ff#
16dd
16ee
16ff#
16dd
=31
16cc#
16dd
16ee
16cc#
16a
16b
16cc#
16a
16f#
16g#
16a
16f#
16d
16f#
16e
16d
=32
16c#
16d
16c#
16B
16A
16f#
16e
16d
16c#
16a
16g#
16f#
16e
16dd
16cc#
16b
=33
16a
16ff#
16ee
16dd
16cc#
16ff#
16ee
16dd
16cc#
16aa
16gg#
16ff#
16ee
16aa
16gg#
16ff#
=34
1ee
=35
8.dd
16ee
8ff#
8dd
8cc#
8r
8b
8r
=36
1ff
=37
4ee
4dd
4cc
4b
=38
8cc#
8cc#
8dd
16cc#
16dd
8b
8b
4ee
=39
8cc#
8cc#
8dd
16cc#
16dd
8b
8b
4e
=40
8a
8a
8aa
16gg#
16aa
8ff#
8ff#
4ddd
=41
16ccc#
16eee
16ccc#
16aa
16bb
16ddd
16bb
16gg#
4aa
4r
=42
8r
8eee
8r
8fff#
8r
16ddd
16bb
8gg#
8ee
=43
8r
8eee
8r
8fff#
8r
16ddd
16bb
8gg#
8ee
=44
8r
16eee
16ccc#
8aa
16gg#
16aa
8ff#
8ff#
4ddd
=45
16ccc#
16eee
16ccc#
16aa
16bb
16ddd
16bb
16gg#
2aa
=46
1aa[
=47
1aa]
=48
8eee
8r
8ddd
8r
8ccc#
8r
8bb
16r
16aa
=49
4.a
8aa
4.a
8aa
=50
4.a
8aa
8a
8aa
8a
8aa
=51
8a
8gg
8g
8ff#
8f#
8ee
8e
8dd
=52
8d
8cc
8d
8b
8d
8a
8g
8r
=53
4a
4b
4cc
4b
=54
2..r
8b
=55
8dd#
8b
8ee
8b
8aa
8b
8gg
8aa
=56
8g
8gg
8f#
8ff#
8e
8ee
8d
8dd
=57
4cc#
4a#
4b
4bb
=58
8aa
8aa
8aa
16gg#
16aa
2gg#
=59
8gg
8gg
8gg
16ff#
16gg
2ff#
=60
2ee
8dd
8dd
8dd
16cc#
16b
=61
8a#
16e#
16f#
16e#
16f#
16e#
16f#
8a#
16g
16f#
16g
16f#
16g
16f#
=62
8b
16e#
16f#
16e#
16f#
16e#
16f#
8cc#
16g
16f#
16g
16f#
16g
16f#
=63
8dd
16a#
16b
16a#
16b
16dd
16b
8a#
16dd#
16ee
16dd#
16ee
16gg
16ee
=64
8dd
16aa#
16bb
16aa#
16bb
16ddd
16bb
8gg
16bb
16gg
8ee
16gg
16ee
=65
8cc#
8r
8gg
8r
8ff#
8r
8a#
8r
=66
8b
16a#
16b
16a#
16b
16dd
16b
8g
16b
16g
8e
16g
16e
=67
8c#
16A
16B
16c#
16d
16e
16f#
8g
16a
16b
16cc#
16dd
16ee
16ff#
=68
8gg
16b
16a
16g
16f#
16e
16d
8c#
16cc#
16dd
16ee
16ff#
16gg
16aa
=69
8bb
8b
8gg
8e
8ee
8c#
8cc#
8G
=70
2r
8r
8dd
8d
8ff#
=71
4ff#
8ee
8dd
4cc#
8dd
8aa
=72
4aa
8gg
8ff#
4aa
8gg
8ff#
=73
8ee
8dd
8gg
8ff#
8ee
8aa
8a
8r
=74
2r
8r
8d
4dd
=75
2r
8r
8b-
4bb-
=76
2r
8r
8cc
4ccc
=77
2r
8r
8g
8gg
8b-
=78
4.bb-
8aa
8gg
8ff
8ee
8dd
=79
8cc#
8dd
4.ee
8ff#
4gg[
=80
8gg]
8ff#
8ee
8dd
8cc#
8bb
8aa
8gg
=81
8ff#
8bb
4.aa
8bb
4aa[
=82
16aa]
16bb
16aa
16bb
4aa[
16aa]
16bb
16aa
16bb
4aa[
=83
16aa]
16bb
16aa
16bb
16aa
16bb
16aa
16bb
16aa
16bb
16ccc#
16ddd
16eee
16fff#
16ggg
16eee
=84
16fff#
16ggg
16aaa
16fff#
16ddd
16eee
16fff#
16ddd
16bb
16ccc#
16ddd
16bb
16gg
16aa
16bb
16gg
=85
16ff#
16gg
16aa
16ff#
16dd
16ee
16ff#
16dd
16b
16cc#
16dd
16b
16g
16b
16a
16g
=86
16f#
16g
16f#
16e
16d
16b
16a
16g
16f#
16dd
16cc#
16b
16a
16gg
16ff#
16ee
=87
16dd
16bb
16aa
16gg
16ff#
16bb
16aa
16gg
16ff#
16ddd
16ccc#
16bb
16aa
16ddd
16ccc#
16bb
=88
1aa
=89
8.gg
16aa
8bb
8gg
8ff#
8r
8ee
8r
=90
1bb-
=91
4aa
4gg
4ff
4ee
=92
4dd
2.r
=93
2r
8aa
8aa
8bb
16aa
16bb
=94
8gg
8gg
4eee
8ff#
8ff#
8gg
16ff#
16gg
=95
8ee
8ee
4ccc#
8dd
8dd
8ee
16dd
16ee
=96
16cc#
16dd
16ee
16ff#
16gg
16ff#
16ee
16dd
16cc#
16dd
16ee
16dd
16cc#
16b
16a
16g
=97
16f#
16d
16f#
16a
16cc
16dd
16ff#
16aa
16ccc
16aa
16ccc
16aa
16gg
16ff#
16aa
16a
=98
16b
16bb
16cc
16ccc
16b
16bb
16a
16aa
16g
16gg
16f#
16ff#
16e
16ee
16d
16dd
=99
16c#
16cc#
16B
16b
16A
16a
16G#
16g#
16A
16a
16G#
16g#
16A
16a
16G
16g
=100
16f#
16a
16dd
16a
16g
16cc#
16ee
16cc#
16a
16dd
16ff#
16dd
16b
16ee
16gg
16ee
=101
16ff#
16dd
16ee
16ff#
16gg
16aa
16bb
16ccc#
16ddd
16aa
16fff#
16ddd
8aaa
16r
16dd
=102
1ee
=103
8ff#
8ff#
8gg
16ff#
16gg
8ee
8ee
4aa
=104
8ff#
8ff#
8gg
16ff#
16gg
8ee
8ee
4a
=105
8dd
8dd
8ddd
16ccc#
16ddd
8bb
8bb
4ggg
=106
16fff#
16aaa
16fff#
16ddd
16eee
16ggg
16eee
16ccc#
4ddd
4r
=107
8r
8aa
8r
8bb
8r
16gg
16ee
8cc#
8a
=108
8r
8aa
8r
8bb
8r
16gg
16ee
8cc#
8a
=109
8r
16aa
16ff#
8dd
16cc#
16dd
8b
8b
4gg
=110
16ff#
16aa
16ff#
16dd
16ee
16gg
16ee
16cc#
2dd
=111
1dd[
=112
1dd]
=113
8aa
8r
8gg
8r
8ff#
8r
8ee
8r
=114
2r
8r
8g#
4gg#
=115
2r
8r
8a
4aa[
=116
8aa]
8b-
4.bb-
8b
8bb
8b
=117
2..bb
8aa
=118
8gg
8ff#
8ee
8dd
8cc#
8b
8a
8g
=119
8f#
8f#
8g
16f#
16g
8e
8e
4a
=120
8d
8d
8e
16d
16e
8c#
8c#
4f#
=121
8B
8B
8c#
16B
16c#
8A
16B
16c#
8d
16e
16f#
=122
8g
8r
8f#
8r
8e
8r
8c#
8r
=123
2r
8r
8dd
8d
8f#
=124
8ff#
8a
8aa
8dd
8ddd
4.r
==
*-
